symbols/web/8k/materialsymbolssharp/8k_wght700fill1_24px.svg

<svg xmlns="http://www.w3.org/2000/svg" height="24" width="24"><path d="M13 15H14.5V12.75L16.25 15H18L15.75 12L18 9H16.25L14.5 11.25V9H13ZM6.725 15H11.225V9H6.725ZM8.225 11.5V10H9.725V11.5ZM8.225 14V12.5H9.725V14ZM2.15 21.85V2.15H21.85V21.85Z"/></svg>

<svg xmlns="http://www.w3.org/2000/svg" height="24" width="24"><path d="M13 15h1.5v-2.25L16.25 15H18l-2.25-3L18 9h-1.75l-1.75 2.25V9H13Zm-6.275 0h4.5V9h-4.5Zm1.5-3.5V10h1.5v1.5Zm0 2.5v-1.5h1.5V14ZM2.15 21.85V2.15h19.7v19.7Z"/></svg>
